build/dist/assets/images/casePage/calendar.svg

<svg width="24" height="24" viewBox="0 0 24 24" fill="none" xmlns="http://www.w3.org/2000/svg">
<path d="M3 5V20C3 20.2652 3.10536 20.5196 3.29289 20.7071C3.48043 20.8946 3.73478 21 4 21H20C20.2652 21 20.5196 20.8946 20.7071 20.7071C20.8946 20.5196 21 20.2652 21 20V5M3 5C3 4.73478 3.10536 4.48043 3.29289 4.29289C3.48043 4.10536 3.73478 4 4 4H20C20.2652 4 20.5196 4.10536 20.7071 4.29289C20.8946 4.48043 21 4.73478 21 5M3 5V9H21V5M17 3V5M12 3V5M7 3V5" stroke="url(#paint0_linear_883_719)" stroke-width="2" stroke-linecap="round" stroke-linejoin="round"/>
<defs>
<linearGradient id="paint0_linear_883_719" x1="12" y1="3" x2="12" y2="21" gradientUnits="userSpaceOnUse">
<stop stop-color="#00B7B2"/>
<stop offset="1" stop-color="#009B97"/>
</linearGradient>
</defs>
</svg>

<svg width="24" height="24" fill="none" xmlns="http://www.w3.org/2000/svg"><path d="M3 5v15a1 1 0 001 1h16a1 1 0 001-1V5M3 5a1 1 0 011-1h16a1 1 0 011 1M3 5v4h18V5m-4-2v2m-5-2v2M7 3v2" stroke="url(#paint0_linear_883_719)" stroke-width="2" stroke-linecap="round" stroke-linejoin="round"/><defs><linearGradient id="paint0_linear_883_719" x1="12" y1="3" x2="12" y2="21" gradientUnits="userSpaceOnUse"><stop stop-color="#00B7B2"/><stop offset="1" stop-color="#009B97"/></linearGradient></defs></svg>
